X: 1
T: Musical Ego, The
M: 4/4
L: 1/8
R: reel
K: Emin
|:e|dBAF ~E3 B|dBAF AFEe|dBAB ~E3 B|dBAF A3 e|
dBAF ~E3 B|dBAF AFEe|dBAB ~G3 B|dBAF E3:|
|:F|GB ~B2 dBAB|~G3e dBAB|GB ~B2 dBAF|~A3e dBAB|
GB ~B2 dBAB|~G3e dBgf| efed (3BcB AB|dBAF E3:|
